public/icons/tokens/rlusd.svg

<?xml version="1.0" encoding="UTF-8"?>
<svg xmlns="http://www.w3.org/2000/svg"
     viewBox="0 0 224 224"
     width="100%">

  <path fill="#496CF4" stroke="none" d="
    M4.953740,139.220078
      C4.160300,134.605362 3.478527,130.199722 2.645424,125.393585
      C2.444727,117.431046 2.395360,109.868980 2.307703,101.878075
      C3.426729,95.889038 4.584047,90.328850 5.698932,84.375961
      C5.853789,83.360733 6.051080,82.738197 6.447669,81.506607
      C7.110429,79.265381 7.573891,77.633224 8.037353,76.001068
      C19.558807,46.855923 38.921616,25.015127 67.709053,11.960146
      C70.122139,10.865819 72.561806,9.830102 75.211105,8.469474
      C76.178322,8.100261 76.923576,8.028728 78.205406,7.818031
      C80.244133,7.155397 81.746269,6.631926 83.248413,6.108454
      C83.248413,6.108454 83.647850,6.146663 84.149078,6.085221
      C85.455650,5.743265 86.260994,5.462749 87.066338,5.182234
      C87.511436,5.133290 87.956543,5.084346 88.954010,4.933854
      C89.506386,4.832305 89.948997,4.619564 89.948997,4.619564
      C92.108170,4.308763 94.267349,3.997962 97.043106,3.622002
      C98.125145,3.379205 98.590599,3.201567 99.056061,3.023927
      C100.793114,2.963959 102.530174,2.903993 105.019295,2.797979
      C106.657295,2.553114 107.543236,2.354295 108.429169,2.155475
      C111.422028,2.292794 114.414886,2.430113 118.167496,2.647701
      C120.270348,2.745421 121.613464,2.762871 122.956573,2.780321
      C123.415756,2.854842 123.874931,2.929364 124.956543,3.146581
      C126.683495,3.371371 127.788017,3.453465 128.892548,3.535559
      C129.670166,3.689786 130.447800,3.844012 131.929871,4.181047
      C134.412247,4.614141 136.190186,4.864428 137.968124,5.114714
      C137.968124,5.114714 137.970612,5.029206 138.130798,5.264368
      C138.839340,5.557901 139.387665,5.616273 139.936005,5.674644
      C141.075943,6.048292 142.215866,6.421940 143.826630,6.944952
      C144.297470,7.094316 144.679138,7.223150 144.679138,7.223150
      C144.679138,7.223150 145.031601,7.028103 145.031601,7.028103
      C163.237076,13.334636 179.373764,22.853821 192.756348,36.943657
      C238.321350,84.916672 231.763580,162.107925 178.672974,201.582123
      C120.486809,244.844986 37.449261,221.579865 9.942533,154.307297
      C9.438972,153.075745 8.946070,151.839844 8.266762,149.976715
      C7.725430,148.560730 7.365531,147.773987 7.005633,146.987259
      C7.007164,146.815292 7.008696,146.643326 6.928643,146.022781
      C6.810722,145.251358 6.648262,145.015305 6.359678,144.866058
      C6.229751,144.113770 6.099824,143.361465 5.861669,141.988403
      C5.515444,140.879272 5.277447,140.390900 5.039450,139.902527
      C5.039449,139.902527 5.065407,139.429153 4.953740,139.220078
    z"/>

  <path fill="#FBFCFE" stroke="none" d="
    M67.342873,87.201630
      C79.398499,85.448524 88.228523,89.887962 94.892845,99.278183
      C96.035690,100.888474 97.371384,102.425369 98.863121,103.711960
      C102.459587,106.813828 106.416992,106.950264 110.388962,104.446938
      C114.397789,101.920372 115.753845,98.127045 114.647133,93.654724
      C114.014137,91.096687 112.722374,88.703247 111.745560,86.228455
      C106.093124,71.907852 113.351952,56.053135 127.682793,51.407955
      C142.121841,46.727703 157.897110,55.203712 161.530136,69.594048
      C165.315109,84.586220 155.829239,99.185966 140.438324,102.003983
      C137.985367,102.453110 135.479813,102.624077 133.035477,103.109459
      C127.700264,104.168922 124.229988,108.222389 124.297211,113.138290
      C124.362297,117.898506 127.622116,121.691978 132.834610,122.811234
      C135.430725,123.368690 138.110184,123.527489 140.722275,124.022980
      C155.796951,126.882462 165.188141,141.389343 161.587341,156.189056
      C158.087418,170.574173 142.381592,179.185364 127.888916,174.665237
      C113.571716,170.199829 106.118500,154.268967 111.674042,139.978119
      C112.578079,137.652603 113.722046,135.406662 114.455605,133.031418
      C115.968552,128.132553 114.304184,123.846397 110.163208,121.380516
      C105.996315,118.899208 101.420273,119.422623 97.843086,123.027893
      C96.331680,124.551163 95.174446,126.424698 93.847122,128.131943
      C86.994347,136.946152 78.001717,140.949158 67.046783,138.632233
      C56.588737,136.420425 49.620918,129.744888 47.036209,119.233437
      C44.341244,108.273605 47.822598,99.090500 56.603226,92.233353
      C59.540710,89.939354 63.435455,88.871155 67.342873,87.201630
    z"/>

</svg>

<svg xmlns="http://www.w3.org/2000/svg" viewBox="0 0 224 224"><path fill="#496CF4" d="M4.954 139.22c-.794-4.615-1.475-9.02-2.309-13.826-.2-7.963-.25-15.525-.337-23.516 1.119-5.989 2.276-11.55 3.39-17.502.156-1.015.353-1.638.75-2.87.662-2.24 1.126-3.873 1.59-5.505 11.52-29.145 30.884-50.986 59.671-64.04 2.413-1.095 4.853-2.13 7.502-3.492.967-.369 1.713-.44 2.994-.651 2.04-.663 3.541-1.186 5.043-1.71 0 0 .4.039.901-.023a33.968 33.968 0 0 0 2.917-.903c.445-.049.89-.098 1.888-.248.552-.102.995-.314.995-.314 2.16-.311 4.318-.622 7.094-.998 1.082-.243 1.548-.42 2.013-.598 1.737-.06 3.474-.12 5.963-.226a41.595 41.595 0 0 0 3.41-.643c2.993.138 5.986.275 9.738.493 2.103.097 3.446.115 4.79.132.459.075.918.15 2 .367 1.726.224 2.831.306 3.936.389.777.154 1.555.308 3.037.645 2.482.433 4.26.683 6.038.934 0 0 .003-.086.163.15.708.293 1.257.351 1.805.41 1.14.373 2.28.747 3.89 1.27.471.15.853.278.853.278l.353-.195c18.205 6.307 34.342 15.826 47.724 29.916 45.565 47.973 39.008 125.164-14.083 164.638-58.186 43.263-141.224 19.998-168.73-47.275a111.028 111.028 0 0 1-1.676-4.33 44.318 44.318 0 0 0-1.261-2.99c.001-.172.003-.344-.077-.964-.118-.772-.28-1.008-.57-1.157l-.497-2.878c-.347-1.109-.585-1.597-.823-2.085 0 0 .026-.474-.085-.683z"/><path fill="#FBFCFE" d="M67.343 87.202c12.055-1.753 20.886 2.686 27.55 12.076 1.143 1.61 2.478 3.147 3.97 4.434 3.597 3.102 7.554 3.238 11.526.735 4.009-2.527 5.365-6.32 4.258-10.792-.633-2.558-1.925-4.952-2.901-7.427-5.653-14.32 1.606-30.175 15.937-34.82 14.439-4.68 30.214 3.796 33.847 18.186 3.785 14.992-5.7 29.592-21.092 32.41-2.453.45-4.958.62-7.403 1.105-5.335 1.06-8.805 5.113-8.738 10.03.065 4.76 3.325 8.553 8.538 9.672 2.596.558 5.275.716 7.887 1.212 15.075 2.86 24.466 17.366 20.865 32.166-3.5 14.385-19.205 22.996-33.698 18.476-14.317-4.465-21.77-20.396-16.215-34.687.904-2.325 2.048-4.571 2.782-6.947 1.513-4.898-.152-9.185-4.293-11.65-4.167-2.482-8.743-1.958-12.32 1.647-1.511 1.523-2.669 3.397-3.996 5.104-6.853 8.814-15.845 12.817-26.8 10.5-10.458-2.212-17.426-8.887-20.01-19.399-2.696-10.96.786-20.142 9.566-27 2.938-2.294 6.832-3.362 10.74-5.031z"/></svg>
